icons/src/scalable/default/devices/audio-card-symbolic.svg

<svg xmlns="http://www.w3.org/2000/svg" viewBox="0 0 16 16">
  <defs id="defs3051">
    <style type="text/css" id="current-color-scheme">
      .ColorScheme-Text {
        color:#4d4d4d;
      }
      </style>
  </defs>
 <path 
     style="fill:#bebebe;fill-opacity:1;stroke:none" 
     class="ColorScheme-Text"
     d="M 3 1.0351562 C 1 1.0351562 1 3.0351562 1 3.0351562 L 1 12.035156 C 1 14.035156 3 14.035156 3 14.035156 L 13 14.035156 C 15 14.035156 15 12.035156 15 12.035156 L 15 11.035156 L 15 8.0351562 L 15 7.0351562 L 15 4.0351562 L 15 3.0351562 C 15 3.0351562 15 1.0351562 13 1.0351562 L 3 1.0351562 z M 6 4.0351562 L 7 4.0351562 L 10 4.0351562 L 11 4.0351562 L 11 9.5351562 C 11 10.363586 10.32843 11.035156 9.5 11.035156 C 8.67157 11.035156 8 10.363586 8 9.5351562 C 8 8.7067263 8.67157 8.0351562 9.5 8.0351562 C 9.67259 8.0351562 9.84568 8.0753062 10 8.1289062 L 10 6.0351562 L 7 6.0351562 L 7 9.5351562 C 7 10.363586 6.32843 11.035156 5.5 11.035156 C 4.67157 11.035156 4 10.363586 4 9.5351562 C 4 8.7067263 4.67157 8.0351562 5.5 8.0351562 C 5.67259 8.0351562 5.84568 8.0753062 6 8.1289062 L 6 6.0351562 L 6 4.0351562 z "
     />
</svg>

<svg version="1.1" viewBox="0 0 16 16" xmlns="http://www.w3.org/2000/svg">
 <path d="m3 1.0352c-2 0-2 2-2 2v9c0 2 2 2 2 2h10c2 0 2-2 2-2v-9s0-2-2-2h-10zm3 3h5v5.5c0 0.82843-0.67157 1.5-1.5 1.5s-1.5-0.67157-1.5-1.5 0.67157-1.5 1.5-1.5c0.17259 0 0.34568 0.04015 0.5 0.09375v-2.0938h-3v3.5c0 0.82843-0.67157 1.5-1.5 1.5s-1.5-0.67157-1.5-1.5 0.67157-1.5 1.5-1.5c0.17259 0 0.34568 0.04015 0.5 0.09375v-4.0938z" fill="#bebebe"/>
</svg>
